X:1
T:Nocturne No.20 in C Sharp Minor
T:Nocturne No. 20 in C-Sharp minor, B.49
T:Frédéric François Chopin
C:Frédéric François Chopin
%%score { 1 | ( 2 3 4 ) }
L:1/8
Q:1/4=50
M:4/4
K:E
V:1 treble nm="Piano" snm="Pno."
V:2 bass 
V:3 bass 
V:4 bass 
V:1
!p!"^Lento con gran espressione" [EGc]2 z (!5![C-GB] !4![CFA]2) z!<(! (!4![C-EG] | %1
!>(! !3![C^^EF]2!<)! !4![^B,DG]2)!>)! z4 |!pp! [EGc]2 z ([C-GB] [CFA]2) z!<(! ([C-EG] | %3
!>(! [C^^EF]2!<)! [^B,DG]2)!>)! z4 | (!3!g4 Tf4 |{ef} g4!<(! !2!c4) | %6
 (!4!c'4-!<)! c'>b!>(! (3c'b!2!a!>)! | !>!!3!a4) z4 | (!4!g4 !2!d4 | !3!e4!>(! !4!f2 c2!>)! | %10
!<(!{cd} Td6!<)! dc |!>(! d4) z2!>)!!p! (G2 | g4!<(! Tf4!<)! |{efga} g4 c2)"_cresc." (!1!c'2 | %14
!8va(! (3!4!c''!5!=d''!3!b' (3!1!a'!4!g'f'!8va)! ^e'/=d'/!>(!(3!3!c'/g/f/ (3!4!g/f/^e/(3=d/!3!c/B/!>)! | %15
!<(! !>!A4-!<)!!>(! A2) z2!>)! |"_cresc." =D4 =d3 !3!c | %17
 T!2!^B2- B!<(!!1!=B/4=c/4^c/4^d/4 !5!e2 !4!dc!<)! |!f! G z (!>!!4!!5!A4 !3!!4!G2 | %19
"_dim." !>!!1!!2!C4) z4 |!pp! (!1!E2 F/G/!1!A/B/!<(! (3c=dc B2)!<)! | %21
!>(! (!5!e=d/c/ BA!>)! (3cdc B2) | (!2!!3![=de]2!<(! [de]>[de] !1!!2![ce]2 .!2!!5![ec']2!<)! | %23
!>(!{/!5!c'!2!e} !1!!4![=db]>!1!!3![ca]!1!!4![db]>!2!!5![ec'] !1!!4![ca]4)!>)! | %24
 (!2!C^D/!1!^E/ F!<(!G (3!4!ABA A2)!<)! |!>(! (!3!cB/B/ !3!F!1!G (3!4!AB!>)!A F2) | %26
!p! (!2!!3![FG]2!<(! [FG]>[FG] !1!!2![EG]2 !2!!5![Ge]2!<)! | %27
!>(!{/!5!c!2!F} !1!!4![Fc]>!3!!1![Ec]!1!!4![Fd]>!2!!5![Ge] !1!!4![Ec]4)!>)! | %28
!f! (T!3!c2 ^Bc!>(! e3 d)!>)! |!pp! (!1!D>!4!c .!3!c.c !2!^B !>!!4!d3) | %30
!>(! (3(!3!G^AG!>)! ^^F^E !3!D3 D) |[M:2/4]!<(! (D>c!<)! ^E>^^F | %32
[M:3/4]"_cresc." G) z/ (g/ ^B3 c) | (d6 | d2) z2 z2 | z2 z2 c2 | d6- | d2 z2 z2 | z6 | z2 z2 C2 | %40
 D6- | D2 z2 z2 | x6 | x6 | %44
[M:4/4][Q:1/4=66]"^Adagio" (3z[I:staff +1] !2!D,!5!^B, (3!3!G,!1!B,[I:staff -1]D!>(! (3^B!3!G!1!B (3dg.!1!^b!>)! | %45
!ppp! !fermata!b'4 z2 (G2 |[Q:1/4=54]"^Tempo I" g4!<(! Tf4!<)! |!>(!{efga} g4 c2)!>)! (c'2 | %48
!f!!8va(! (3c''d''b' (3a'g'f'!8va)! ^e'/=d'/!>(!(3c'/b/a/ (3g/f/^e/(3=d/c/!>)!B/ | %49
!p! A4)!<(! (!5!a4!<)! |!>(! g4!>)! d4 |!<(! T!3!e4!<)!!>(!{de} (.f2 .!2!c2)!>)! | %52
 (3!3!ded (3!2!^^c!3!d!1!e (3f/g/!1!a/!3!^a/!1!b/!<(! (3!2!^b/!3!c'/!1!^^c'/(3d'/e'/!<)!f'/ | %53
 !3!!5!e'4 !4!d'2 !3!c'2 | !2!b2) (!1!a2 !4!g2) (!2!d2 | !3!e2 !4!fg f2 !2!c2) |!<(!{cd} (Td8!<)! | %57
!>(!{/!2!c)} !>!!2!c4!>)!!p!!<(! (18:8:18(!3!d/!1!e/f/g/!1!a/b/c'/d'/!<)!!>(!c'/b/.a/.!3!g/.f/.e/.!4!d/.c/.B/.A/!>)! | %58
 !2!G4)!<(! (35:8:35(!>!!1!A/B/c/d/!1!e/f/g/!1!a/!8va(!b/c'/d'/!1!e'/f'/g'/!1!a'/b'/c''/!>(!d''/!<)!c''/b'/a'/g'/f'/e'/d'/c'/b/!8va)!a/!3!g/f/e/!4!d/c/B/A/!>)! | %59
 !2!G4)!<(! (11:4:11(!1!ABcd!1!e!<)!f!>(!e!4!dcBA!>)! | %60
 !>!G4)"^delicatissimo"!<(! (13:4:13!1!ABcd!1!ef!<)!g!>(!.f.e.!4!d.c.B.A!>)! | %61
"^pp e rall."!pp! !>!!2!G8- | G8 | (G3 !4!c!ppp! !1!^egc'!1!^e' | !fermata!c''8) |] %65
V:2
!ped! C,,2 z!ped-up! (C,!ped! F,2) z!ped-up! (C, |!ped! A,,2!ped! G,,2)!ped-up! z4 | %2
!ped! C,,2 z (C,!ped-up!!ped! F,2) z (C,!ped-up! |!ped! A,,2!ped! G,,2)!ped-up! z4!ped-up! | %4
!ped! (C,!3!G,EC)!ped-up!!ped! (C,!3!A,DC)!ped-up! | (C,G,EC) (C,G,CC) | (C,G,^EC) (C,G,EC) | %7
 (D,!3!A,FC) (D,A,FC) |!>(! (B,,!3!G,FD)!>)! (D,G,FD) |!<(! (C,!3!G,EC)!<)! ((A,,D,)CF,) | %10
!ped! (G,,D,(CD,) (G,,D,^B,!ped-up!^A,)) |!ped! (G,,D,^B,G,!ped-up!!ped! G,,D,!ped-up!B,G,) | %12
!ped! (C,G,EC)!ped-up!!ped! (C,F,D!ped-up!C) |!ped! (C,G,EC)!ped-up!!ped! (C,G,EC)!ped-up! | %14
!ped! (C,G,^EC)!ped-up!!ped! (C,G,E!ped-up!B,) |!ped! (F,B,FC A,!5!F,!1!B,!3!C,)!ped-up! | %16
!ped! (F,,!3!=D,A,F,)!ped-up!!ped! (F,,D,!ped-up!A,F,) | %17
!ped! (F,,^D,A,F,)!ped-up!!ped! (^^F,,E,C!ped-up!A,) | %18
!ped! (G,,E,CG,)!ped-up!!ped! (G,,D,B,F,)!ped-up! |!ped! (C,G,E,D, C,E,C,!ped-up!B,,) | %20
!ped! (A,,E,CA,)!ped-up!!ped! (A,,E,=DG,) | (A,,E,CA,) (A,,E,=DG,) | (B,,E,EG,) (A,,E,EA,) | %23
 (A,,E,EG,) (A,,E,CA,) | (F,,C,A,F,) (F,,C,B,^E,) | (F,,C,B,^E,) (F,,C,A,F,) | %26
 (G,,D,^B,G,) (C,=E,CG,) | (G,,D,^B,G,) (C,E,CG,) | (=A,,E,C^^F,) (G,,D,^B,G,) | %29
 (A,,D,D^^F,) (G,,D,^B,G,) |!ped! (^^C,^E,=B,G,)!ped-up!!ped! (D,G,^B,!ped-up!^^G,) | %31
[M:2/4]!ped! (D,^A,CD) | x4!ped-up![M:3/4]!ped! (3(G,,D,G, ^B,3!ped-up! G, | %33
!ped! .=A,,2) (3(!5!D,!4!^^F,!1!D !2!C2)!ped-up! |!ped! (3(G,,D,G, !>!^B,3 G,!ped-up! | %35
!ped! .D,,2) (3(D,^^F,^B, ^A,2)!ped-up! |!ped! (3(G,,D,G, !>!^B,3 G,!ped-up! | %37
 .=A,,2)!ped! (3((D,^^F,)D C2)!ped-up! |!ped! (3(G,,D,G, ^B,3 G,!ped-up! | %39
!ped! .D,,2) (3(D,^^F,^B, ^A,2)!ped-up! |!ped! (3(G,,D,G, ^B,3 G,!ped-up! | %41
!ped! .D,,2) (3(D,^^F,^B, ^A,2)!ped-up! |!ped! (3(G,,D,G, z2 z2!ped-up! | %43
!ped! D,,2) z2 z2!ped-up! |[M:4/4]!ped! G,,,2 z2 z4!ped-up! | !fermata!z8 | (C,G,EC) (E,A,DC) | %47
 (C,G,EC) (C,G,EC) | (C,G,^EB,) (C,G,EB,) |!ped! (F,,C,A,F,)!ped-up!!ped! (F,,C,A,F,)!ped-up! | %50
 (^B,,F,DG,) (=B,,F,DG,) | (C,E,CG,) (A,,D,CF,) | (G,,D,^CF,) (G,,D,^B,G,) | %53
 (F,,E,B,A,) (F,,D,CA,) | (G,,D,B,F,) (B,,F,DG,) | (C,E,CG,) (A,,D,CF,) | (G,,D,CF,) (G,,D,B,F,) | %57
 (C,G,EC) (C,F,DC) | (C,G,EC) (C,F,DC) | (C,G,EC) (C,F,DC) | (C,G,EC) (C,F,DC) | %61
 (C,G,EC) (C,F,DC) | (C,G,EC) (C,!>(!F,DC) |!ped! (C,!>)!G,^EC G,^E,C,G,,!ped-up! | %64
 !fermata!C,,8) |] %65
V:3
 x8 | x8 | x8 | x8 | x8 | x8 | x8 | x8 | x8 | x8 | x2 C2 x2 ^B,^A, | x2 ^B,2 x4 | x G,2 x2 F,2 x | %13
 x G,2 x5 | x8 | x8 | x8 | x8 | x8 | x8 | x8 | x8 | x8 | x8 | x8 | x8 | x8 | x8 | x8 | x8 | x8 | %31
[M:2/4] x4 |[M:3/4] x6 | x6 | x6 | x6 | x6 | x6 | x6 | x6 | x6 | x6 | z2 ^B,3 G, | %43
 z2 (3(D,^^F,^B, ^A,2) |[M:4/4] x8 | x8 | x8 | x8 | x8 | x8 | x8 | x8 | x8 | x8 | x8 | x8 | x8 | %57
 x8 | x8 | x8 | x8 | x8 | x8 | x8 | x8 |] %65
V:4
 x8 | x8 | x8 | x8 | x8 | x8 | x8 | x8 | x8 | x8 | x8 | x8 | x8 | x8 | x8 | x8 | x8 | x8 | x8 | %19
 x8 | x8 | x8 | x8 | x8 | x8 | x8 | x8 | x8 | x8 | x8 | x8 |[M:2/4] x4 |[M:3/4] x6 | x6 | x6 | x6 | %36
 x6 | x6 | x6 | x6 | x6 | x6 | x6 | x6 |[M:4/4] x8 | x8 | x8 | x8 | x8 | x8 | x8 | x8 | x8 | x8 | %54
 x8 | x8 | x8 | x8 | x8 | x8 | x8 | x2 E2 x2 D2 | x2 E2 x2 D2 | x2 ^E2 x4 | x8 |] %65

